static/fa/svgs/solid/school-circle-check.svg

<svg xmlns="http://www.w3.org/2000/svg" viewBox="0 0 640 512"><!--! Font Awesome Free 6.1.1 by @fontawesome - https://fontawesome.com License - https://fontawesome.com/license/free (Icons: CC BY 4.0, Fonts: SIL OFL 1.1, Code: MIT License) Copyright 2022 Fonticons, Inc.--><path d="m476.8 98.06 125.6 27.04c22 5.8 37.6 25.2 37.6 47.7v94c-31.9-45.2-84.5-75.7-144-75.7-38.5 0-74.2 13.3-103.1 34.3 9.5-14.1 15.1-31.1 15.1-50.3 0-47.7-39.4-88-88-88s-88 40.3-88 88c0 49.5 39.4 88 88 88 15.6 0 30.2-4 42.9-10.2-23.5 27-38.8 61.4-42.2 99.1h-.7c-35.3 0-64 28.7-64 64v96h64H48c-26.51 0-48-21.5-48-48V172.8c0-22.5 15.63-41.9 37.59-47.7L163.2 98.06l139-92.686c9.9-7.165 24.8-7.165 35.6 0l139 92.686zM96 192c-8.84 0-16 7.2-16 16v64c0 8.8 7.16 16 16 16h32c8.8 0 16-7.2 16-16v-64c0-8.8-7.2-16-16-16H96zm0 128c-8.84 0-16 7.2-16 16v64c0 8.8 7.16 16 16 16h32c8.8 0 16-7.2 16-16v-64c0-8.8-7.2-16-16-16H96zm224-192c8.8 0 16 7.2 16 16v16h16c8.8 0 16 7.2 16 16s-7.2 16-16 16h-32c-8.8 0-16-7.2-16-16v-32c0-8.8 7.2-16 16-16zm320 240c0 79.5-64.5 144-144 144s-144-64.5-144-144 64.5-144 144-144 144 64.5 144 144zm-160 17.4-28.7-28.7c-6.2-6.3-16.4-6.3-22.6 0-6.3 6.2-6.3 16.4 0 22.6l40 40c6.2 6.3 16.4 6.3 22.6 0l72-72c6.3-6.2 6.3-16.4 0-22.6-6.2-6.3-16.4-6.3-22.6 0L480 385.4z"/></svg>

<svg xmlns="http://www.w3.org/2000/svg" viewBox="0 0 640 512"><!--! Font Awesome Free 6.1.1 by @fontawesome - https://fontawesome.com License - https://fontawesome.com/license/free (Icons: CC BY 4.0, Fonts: SIL OFL 1.1, Code: MIT License) Copyright 2022 Fonticons, Inc. --><path d="M476.8 98.06L602.4 125.1C624.4 130.9 640 150.3 640 172.8V266.8C608.1 221.6 555.5 191.1 496 191.1C457.5 191.1 421.8 204.4 392.9 225.4C402.4 211.3 408 194.3 408 175.1C408 127.4 368.6 87.1 320 87.1C271.4 87.1 232 127.4 232 175.1C232 224.6 271.4 263.1 320 263.1C335.6 263.1 350.2 259.1 362.9 252.9C339.4 279.9 324.1 314.3 320.7 352H320.3L320 352C284.7 352 256 380.7 256 416V512L320 512H48C21.49 512 0 490.5 0 464V172.8C0 150.3 15.63 130.9 37.59 125.1L163.2 98.06L302.2 5.374C312.1-1.791 327-1.791 337.8 5.374L476.8 98.06zM96 192C87.16 192 80 199.2 80 208V272C80 280.8 87.16 288 96 288H128C136.8 288 144 280.8 144 272V208C144 199.2 136.8 192 128 192H96zM96 320C87.16 320 80 327.2 80 336V400C80 408.8 87.16 416 96 416H128C136.8 416 144 408.8 144 400V336C144 327.2 136.8 320 128 320H96zM320 128C328.8 128 336 135.2 336 144V160H352C360.8 160 368 167.2 368 176C368 184.8 360.8 192 352 192H320C311.2 192 304 184.8 304 176V144C304 135.2 311.2 128 320 128zM640 368C640 447.5 575.5 512 496 512C416.5 512 352 447.5 352 368C352 288.5 416.5 224 496 224C575.5 224 640 288.5 640 368zM480 385.4L451.3 356.7C445.1 350.4 434.9 350.4 428.7 356.7C422.4 362.9 422.4 373.1 428.7 379.3L468.7 419.3C474.9 425.6 485.1 425.6 491.3 419.3L563.3 347.3C569.6 341.1 569.6 330.9 563.3 324.7C557.1 318.4 546.9 318.4 540.7 324.7L480 385.4z"/></svg>
